bvspca/static/svg/email-white.svg

<?xml version="1.0" encoding="UTF-8" standalone="no"?><!DOCTYPE svg PUBLIC "-//W3C//DTD SVG 1.1//EN" "http://www.w3.org/Graphics/SVG/1.1/DTD/svg11.dtd"><svg width="100%" height="100%" viewBox="0 0 57 47" version="1.1" xmlns="http://www.w3.org/2000/svg" xmlns:xlink="http://www.w3.org/1999/xlink" xml:space="preserve" xmlns:serif="http://www.serif.com/" style="fill-rule:evenodd;clip-rule:evenodd;stroke-linejoin:round;stroke-miterlimit:1.41421;"><path d="M33.549,26.875l-3.337,3.337c-1.008,1.008 -2.642,1.008 -3.649,0l-3.337,-3.337l-14.423,14.424l39.161,-0.008l-14.415,-14.416Zm18.064,-18.064l-14.415,14.415l14.414,14.414l0.001,-28.829Zm-32.037,14.415l-14.414,-14.414l-0.001,28.829l14.415,-14.415Zm8.811,1.596l19.597,-19.669l-39.185,0.008l19.588,19.661Zm-23.223,-24.822l46.447,0c2.851,0 5.164,2.304 5.164,5.148l0,36.155c0,2.843 -2.314,5.148 -5.164,5.148l-46.447,0c-2.852,0 -5.164,-2.303 -5.164,-5.148l0,-36.155c0,-2.843 2.314,-5.148 5.164,-5.148" style="fill:#fff;"/></svg>

<svg viewBox="0 0 57 47" xmlns="http://www.w3.org/2000/svg" fill-rule="evenodd" clip-rule="evenodd" stroke-linejoin="round" stroke-miterlimit="1.414"><path d="M33.549 26.875l-3.337 3.337a2.58 2.58 0 0 1-3.649 0l-3.337-3.337L8.803 41.299l39.161-.008-14.415-14.416zM51.613 8.811L37.198 23.226 51.612 37.64l.001-28.829zM19.576 23.226L5.162 8.812l-.001 28.829 14.415-14.415zm8.811 1.596L47.984 5.153l-39.185.008 19.588 19.661zM5.164 0h46.447c2.851 0 5.164 2.304 5.164 5.148v36.155c0 2.843-2.314 5.148-5.164 5.148H5.164C2.312 46.451 0 44.148 0 41.303V5.148C0 2.305 2.314 0 5.164 0" fill="#fff"/></svg>
